!!!!SEGMENT: pl-kk--kk-i-38--021_lasso-orlando-di--domine-probasti-me.krn
!!!cenid: 16xx:1271
!!!COM: Lasso, Orlando di
!!!COM-rismid: pe506
!!!CDT: ~1532-1594/06/14
!!!CNT: French-Flemish
!!!OTL: Domine probasti me
!!!PDT:
!!!AGN: Sacred
!!!SMS-siglum: PL-Kk
!!!SMS-shelfmark: Kk.I.38
!!!SMS-shelfwork: 021 W
!!!SMS-variant:
!!!SMS-altvar:
!!!NIFC-rismid: 1001154417
!!!URL-scan: http://repozytorium.nifc.pl/skany/pl-kk-nut--i-38
!!!ONB-nifc: Lib. 3. Fol. 13. 2da parte (jeśli występuje), należy do utworu tytułowego
**kern	**text
*Iempty	*
*I"Baſso Ripieno.	*
*clefF3	*
*k[]	*
*C:	*
*M2/1	*
*met(C|)	*
=1-	=1-
!LO:TX:t=P:problem:po kluczu:xstem cue AA C E	!
00r	.
=2-	=2-
.	.
=3-	=3-
00r	.
=4-	=4-
.	.
=5-	=5-
00r	.
=6-	=6-
.	.
=7-	=7-
00r	.
=8-	=8-
.	.
=9-	=9-
!LO:TX:t=P:problem:kreska pseudotaktowa	!
1r	.
1.F	Do-
=10-	=10-
.	.
*2\right	*
2D/	-mi-
!LO:TX:t=P:problem:oddech/cezura na różnej wysokości:global	!
2D,</	-ne
2.F/	pro-
=11-	=11-
.	.
4E/	.
!LO:TX:t=P:problem:kreska pseudotaktowa	!
2C/	.
1F	-bas-
=12-	=12-
2D/	-ti
!LO:TX:t=P:problem:kreska pseudotaktowa	!
2C/	me
0r	.
=13-	=13-
.	.
1.c	Do-
=14-	=14-
.	.
2A\	-mi-
!LO:TX:t=P:problem:kreska pseudotaktowa	!
1A	-ne
=15-	=15-
1F	pro-
2F/	-bas-
2D/	-ti
=16-	=16-
!LO:TX:t=P:problem:kreska pseudotaktowa	!
1AA	me
1r	.
=17-	=17-
1D	et
2G\	co-
2C/	-gno-
=18-	=18-
!LO:TX:t=P:problem:kreska pseudotaktowa	!
1G	-vis-
*lig	*
1D	-ti
=19-	=19-
1E	.
*Xlig	*
!LO:TX:t=P:problem:kreska pseudotaktowa	!
1AA	me
=20-	=20-
00r	.
=21-	=21-
.	.
=22-	=22-
0r	.
=23-	=23-
!LO:TX:t=P:problem:kreska pseudotaktowa	!
1r	.
1A	Tu
=24-	=24-
2A\	co-
2A\	-gno-
1c	-viſ-
=25-	=25-
!LO:TX:t=P:problem:kreska pseudotaktowa	!
1F	-ti
!LO:LB:g=original	!
2.A\	Se-
4A\	-ſsi-
=26-	=26-
2D/	-o-
2F/	-nem
2F/	me-
!LO:TX:t=P:problem:kreska pseudotaktowa	!
2C/	-am
=27-	=27-
0r	.
=28-	=28-
!LO:TX:t=P:problem:kreska pseudotaktowa	!
1r	.
1E	Tu
=29-	=29-
2E/	co-
2E/	-gno-
1G	-vis-
=30-	=30-
!LO:TX:t=P:problem:kreska pseudotaktowa	!
1C	-ti
1r	.
=31-	=31-
2r	.
1F	Se-
!LO:TX:t=P:problem:kreska pseudotaktowa	!
2D/	-ſsi-
=32-	=32-
2.A\	-o-
4G\	.
2F#X\	.
!LO:TX:t=P:problem:kreska pseudotaktowa	!
2G\	-nem
=33-	=33-
(4C/	me-
4D/	.
4E/)	.
4Fny/	.
1G	.
=34-	=34-
2D,</	-am
2G\	et
2A\	re-
!LO:TX:t=P:problem:kreska pseudotaktowa	!
2B\	-ſur-
=35-	=35-
2c\	-re-
!LO:TX:t=P:problem:kreska pseudotaktowa	!
2F\	-cti-
1G	-o-
=36-	=36-
2D,</	-nem
2G\	me-
!LO:TX:t=P:problem:kreska pseudotaktowa	!
1C	-am.
=37-	=37-
00r	.
=38-	=38-
.	.
=39-	=39-
!LO:TX:t=P:problem:kreska pseudotaktowa	!
0r	.
=40-	=40-
!LO:LB:g=original	!
1D	In-
2A\	-tel-
2G#X\	-le-
=41-	=41-
1A	-xis-
!LO:TX:t=P:problem:kreska pseudotaktowa	!
1D	-ti
=42-	=42-
!LO:TX:a:t=1.	!
1r	.
2r	.
1Gny	Co-
=43-	=43-
.	.
2E/	-gi-
2F\	-ta-
2D/	-ti-
=44-	=44-
2A\	-o-
2F\	-nes
2E/	me-
!LO:TX:t=P:problem:kreska pseudotaktowa	!
2D,</	-as
=45-	=45-
1B-X	de
4F\	lon-
4G\	.
4A\	.
!LO:TX:t=P:problem:kreska pseudotaktowa	!
4Bny\	.
=46-	=46-
4c\	.
4B\	.
4A\	.
!LO:TX:t=P:problem:kreska pseudotaktowa	!
4G\	.
4F\	.
4G\	.
4A\	.
4B\	.
=47-	=47-
1c	.
!LO:TX:t=P:problem:kreska pseudotaktowa	!
1C	-ge.
=48-	=48-
00r	.
=49-	=49-
.	.
=50-	=50-
00r	.
=51-	=51-
.	.
=52-	=52-
!LO:TX:t=P:problem:kreska pseudotaktowa	!
00r	.
=53-	=53-
.	.
=54-	=54-
2.F\	Se-
4F\	-mi-
2F\	-tam
2F\	me-
=55-	=55-
!LO:TX:t=P:problem:kreska pseudotaktowa	!
1C	-am
2r	.
1G	et
=56-	=56-
.	.
2G\	fu-
2.G\	-ni-
4G\	-cu-
=57-	=57-
!LO:TX:t=P:problem:kreska pseudotaktowa	!
!LO:SIC:v:t=custos E	!
1C	-lum
!LO:LB:g=original	!
1G	me-
=58-	=58-
!LO:TX:t=P:problem:kreska pseudotaktowa	!
1D,<	-um
2r	.
2D/	in-
=59-	=59-
2E/	-ves-
!LO:TX:t=P:problem:kreska pseudotaktowa	!
2E/	-ti-
2.F/	-ga-
4E/	.
=60-	=60-
2.D/	.
4D/	.
2C/	-sti,
!LO:TX:t=P:problem:kreska pseudotaktowa	!
2r	.
=61-	=61-
2r	.
!LO:TX:t=P:problem:kreska pseudotaktowa	!
2C/	in-
2G\	-veſ-
2F#X\	-ti-
=62-	=62-
1G	-ga-
!LO:TX:t=P:problem:kreska pseudotaktowa	!
1C	-sti
=63-	=63-
2r	.
2G\	in-
2D/	-ves-
!LO:TX:t=P:problem:kreska pseudotaktowa	!
2F/	-ti-
=64-	=64-
2.C/	-ga-
4D/	.
1E	.
=65-	=65-
0AA;	-sti.
=66-	=66-
*M2/1	*
*met(C|)	*
!LO:TX:a:B:t=2da\nparte	!
00r	.
=67-	=67-
.	.
=68-	=68-
00r	.
=69-	=69-
.	.
=70-	=70-
!LO:TX:t=P:problem:kreska pseudotaktowa	!
0r	.
=71-	=71-
2r	.
2D/	Tu
2D/	co-
2F/	-gno-
=72-	=72-
1E	-vis-
!LO:TX:t=P:problem:kreska pseudotaktowa	!
1D	-ti
=73-	=73-
!LO:LB:g=original	!
2.G\	o-
4G\	-mni-
!LO:TX:t=P:problem:kreska pseudotaktowa	!
1D	-a
=74-	=74-
1r	.
*	*ij
2.D/	o-
4D/	-mni-
=75-	=75-
2BB/	-a
*	*Xij
!LO:TX:t=P:problem:kreska pseudotaktowa	!
2BB/	no-
2.C/	-viſ-
4C/	-ſi-
=76-	=76-
1F	-ma
2D/	et
2F\	an-
=77-	=77-
1BB-X	-ti-
!LO:TX:t=P:problem:kreska pseudotaktowa	!
0C	-qua
=78-	=78-
.	.
0r	.
=79-	=79-
.	.
!LO:TX:t=P:problem:kreska pseudotaktowa	!
1r	.
=80-	=80-
1.F	Tu
2G\	for-
=81-	=81-
2F\	-mas-
2E/	-ti
!LO:TX:t=P:problem:kreska pseudotaktowa	!
1D	me
=82-	=82-
!LO:TX:t=P:problem:kreska pseudotaktowa	!
0r	.
=83-	=83-
1r	.
*	*ij
1.G	Tu
=84-	=84-
.	.
2A\	for-
2G\	-mas-
2F\	-ti-
=85-	=85-
!LO:TX:t=P:problem:kreska pseudotaktowa	!
1E	-me
*	*Xij
0r	.
=86-	=86-
.	.
1E	Tu
=87-	=87-
2AA/	for-
2.D/	-ma-
4C/	.
2AA/	.
=88-	=88-
1E,<	-sti
!LO:TX:t=P:problem:kreska pseudotaktowa	!
1AA	me
=89-	=89-
!LO:TX:t=7.	!
00r	.
=90-	=90-
.	.
=91-	=91-
0r	.
=92-	=92-
!LO:TX:t=P:problem:kreska pseudotaktowa	!
1r	.
!LO:LB:g=original	!
2r	.
2A\	et
=93-	=93-
2A\	po-
!LO:TX:t=P:problem:kreska pseudotaktowa	!
2A\	-su-
1B-X	-is-
=94-	=94-
2G\	-ti
!LO:TX:t=P:problem:kreska pseudotaktowa	!
2G\	su-
2.D/	-per
4E/	.
=95-	=95-
1F	.
!LO:TX:t=P:problem:kreska pseudotaktowa	!
1BB-X	me
=96-	=96-
0r	.
=97-	=97-
!LO:TX:t=P:problem:kreska pseudotaktowa	!
1r	.
2r	.
2.F/	ma-
=98-	=98-
.	.
4E/	.
!LO:TX:t=P:problem:kreska pseudotaktowa	!
2C/	.
4D/	-num
4E/	.
4F/	.
4G/	.
=99-	=99-
2.A\	.
4Bny\	.
!LO:TX:t=P:problem:kreska pseudotaktowa	!
1c	.
=100-	=100-
*lig	*
1F	Tu-
1G	.
*Xlig	*
=101-	=101-
!LO:TX:t=P:problem:kreska pseudotaktowa	!
0C	-am
=102-	=102-
00r	.
=103-	=103-
.	.
=104-	=104-
!LO:TX:t=P:problem:kreska pseudotaktowa	!
0r	.
=105-	=105-
2r	.
2C/	mi-
2C/	-ra-
2C/	-bi-
=106-	=106-
!LO:TX:t=P:problem:kreska pseudotaktowa	!
1F	-lis
2D/	fac-
2A\	-ta
=107-	=107-
2G\	est
!LO:TX:t=P:problem:kreska pseudotaktowa	!
2G\	Sci-
!LO:LB:g=original	!
2.D/	-en-
4D/	-ti-
=108-	=108-
2F#X,<\	-a
2G\	tu-
2.C/	-a
!LO:TX:t=P:problem:kreska pseudotaktowa	!
4D/	.
=109-	=109-
4E/	.
4Fny/	.
2G\	.
2.A\	.
4G\	.
=110-	=110-
1F	ex
!LO:TX:t=P:problem:kreska pseudotaktowa	!
1E	me
=111-	=111-
00r	.
=112-	=112-
.	.
=113-	=113-
2r	.
1A\	com-
!LO:TX:t=P:problem:kreska pseudotaktowa	!
2AA/	-for-
=114-	=114-
2.D/	-ta-
4E/	.
2.F/	.
4E/	.
=115-	=115-
2D/	.
2D/	-ta
!LO:TX:t=P:problem:kreska pseudotaktowa	!
1C	est
=116-	=116-
00r	.
=117-	=117-
.	.
=118-	=118-
2r	.
1c\	et
2B\	non
=119-	=119-
2.c\	po-
4c\	-te-
2G,<\	-ro
!LO:TX:t=P:problem:kreska pseudotaktowa	!
2G\	ad
=120-	=120-
1A	e-
2D,</	-am
1d	et
=121-	=121-
.	.
!LO:TX:t=P:problem:kreska pseudotaktowa	!
!LO:SIC:v:t=custos d	!
2c#X\	non
!LO:LB:g=original	!
2.d\	po-
4d\	-te-
=122-	=122-
2A\	-ro
!LO:TX:t=P:problem:kreska pseudotaktowa	!
2cny\	ad
2F|\	e-
!LO:TX:t=P:problem:kreska pseudotaktowa	!
2G|\	-am
=123-	=123-
00r	.
=124-	=124-
.	.
=125-	=125-
!LO:TX:t=P:problem:kreska pseudotaktowa	!
1r	.
2r	.
1F	et
=126-	=126-
.	.
!LO:TX:t=P:problem:kreska pseudotaktowa	!
2E/	non
2.F/	po-
4F/	-te-
=127-	=127-
2D/	-ro
!LO:TX:t=P:problem:kreska pseudotaktowa	!
2D/	ad
1AA	e-
=128-	=128-
0E;	-am.
=-	=-
*-	*-
!!!RDF**kern: < = below
!!!RDF**kern: > = above
!!!RDF**kern: | = vertical stroke
!!!ENC: Marta Chmielewska
!!!END: 2021-07-30
!!!ENC:Berenika Jozajtis
!!!END:2021-07-03
